dist/img/q.svg

<svg width="14" height="11" viewBox="0 0 14 11" fill="none" xmlns="http://www.w3.org/2000/svg">
<path d="M0.541193 10.1895V7.63263C0.541193 6.85612 0.678504 6.03225 0.953125 5.16104C1.23722 4.28036 1.64441 3.43282 2.17472 2.61843C2.71449 1.79457 3.36316 1.0796 4.12074 0.473543L5.93892 1.95082C5.34233 2.80309 4.8215 3.69324 4.37642 4.62127C3.94081 5.53983 3.72301 6.52468 3.72301 7.57582V10.1895H0.541193ZM7.81392 10.1895V7.63263C7.81392 6.85612 7.95123 6.03225 8.22585 5.16104C8.50994 4.28036 8.91714 3.43282 9.44744 2.61843C9.98722 1.79457 10.6359 1.0796 11.3935 0.473543L13.2116 1.95082C12.6151 2.80309 12.0942 3.69324 11.6491 4.62127C11.2135 5.53983 10.9957 6.52468 10.9957 7.57582V10.1895H7.81392Z" fill="#2C2C31"/>
</svg>

<svg width="14" height="11" viewBox="0 0 14 11" fill="none" xmlns="http://www.w3.org/2000/svg"><path d="M.541 10.19V7.633c0-.777.138-1.6.412-2.472.284-.88.691-1.728 1.222-2.543A9.145 9.145 0 014.12.474L5.939 1.95a18.91 18.91 0 00-1.563 2.67 6.808 6.808 0 00-.653 2.955v2.614H.541zm7.273 0V7.633c0-.777.137-1.6.412-2.472a10.66 10.66 0 011.221-2.543A9.145 9.145 0 0111.394.474l1.818 1.477a18.92 18.92 0 00-1.563 2.67 6.808 6.808 0 00-.653 2.955v2.614H7.814z" fill="#2C2C31"/></svg>
